X: 33316
T: Quarff Lasses, The
R: strathspey
M: 4/4
K: Ddorian
E|(3FGF E>F D2d2|d>cA<B c3F|E2C2 C>DE<C|F>DE<C A,3E|
(3FGF E>F D2d2|d>cA<B c3F|E2C2 C>DE<C|F>DE<C D3:|
D|D>A (3AGA G>FE<C|D>EF<G A4|D>A (3AGA G>FE<C|D>CA,<C D3D|
D>A (3AGA G>FE<C|D>EF<G A3c|d>c (3AcA B>GA>E|D>CA,<C D3||
E|(3FGF E>F D2d2|d>cA<B c3F|E2C2 C>DE<C|F>DE<C A,3E|
(3FGF E>F D2d2|d>cA<B c3F|E2C2 C>DE<C|F>DE<C D3||

